X:1
T:A Shropshire Lad
T:The Street sounds to the Soldiers' tread
T:A Shropshire Lad
T:5. The Street sounds to the Soldiers' tread
T:Arthur Somervell
T:A. E. Housman
T:Creative Commons copyright waiver (CC0 1.0 Universal)
T:Creative Commons copyright waiver (CC0 1.0 Universal)
T:Creative Commons copyright waiver (CC0 1.0 Universal)
T:Creative Commons copyright waiver (CC0 1.0 Universal)
T:Creative Commons copyright waiver (CC0 1.0 Universal)
C:Arthur Somervell
Z:A. E. Housman
Z:Creative Commons copyright waiver (CC0 1.0 Universal)
%%score 1 { ( 2 4 ) | ( 3 5 ) }
L:1/8
Q:1/4=144
M:4/4
K:Eb
V:1 treble nm="Voice"
V:2 treble nm="Piano"
V:4 treble 
V:3 bass 
V:5 bass 
V:1
"^Allegro" z2 | z8 | z8 | z8 | z4 z2!p! B,2 | E4 E2 E E | B2 c2 B2!<(! E2 | A3 B G3 =A!<)! | %8
w: ||||The|street sounds to the|sol- diers’ tread, And|out we come to|
 B6 G2 |!<(! A2 B2 c2 e2!<)! | d2 (cd) B2 B2 | e6!>(! (dc) | (B2 c4) G2!>)! | A4 z4 | z8 | z8 | %16
w: see: A|sin- gle red- coat|turns his * head, He|turns and *|looks * at|me.|||
 z2!mf! A2 G2 F2 | E3 E e4- | %18
w: My man, from|sky to skys|
 e2 A2"^add comma, as \nwww.lieder.net/lieder/get_text.html?TextId=8372\nV\nV\nV\nV\n\n" G2 F2 | %19
w: _ so far, We|
 B2 c2 d2 (cd) |!<(! B8-!<)! |!>(! B6!>)! z2 | z4 z2 F2 | B6 (AG) | c3 c =B2 c2 | %25
w: nev- er cross’d be- *|\- fore;|_|Such|leagues a- *|part the world’s ends|
"^add comma, as lieder.net\nV\nV\nV\nV\n\n" d2 =B2 c2 (EF) | G6!>(! G2 | C4!>)! z4 | %28
w: are, We’re like to _|meet no|more.|
 z2!mf!!<(! F2 B3 c!<)! | B2 e2 d2 c2 | %30
w: What thoughts at|heart have you and|
"^IMSLP529227 has an unnecessary extention after 'I,' .\nMusescore will not do this without tricks, I have deleted it.\nV\nV\nV\nV\n----------------------\n\n""^cresc. poco a poco" B6 c2 | %31
w: I, We|
 F F3 B3 A | (_d4 c4- | c2) z2 z4 | z4 z2!ff! B2 | e6 E2 | A"^as bar 30\n" A6 z | e6 E2 | A6 z2 | %39
w: can- not stop to|tell, _|_|But,|dead or|liv- ing,|drunk or|dry,|
!f! E6 E2 |!<(! A A6!<)! z | B6!<(! B2!<)! | e4 z4 |!ff! c8- | c2 c4 c2 | B8- | B7 B | e8- | e8 | %49
w: Dead or|liv- ing,|drunk or|dry,|Sol-|* dier, I|wish|_ you|well.|_|
 z8 | z8 | z8 | z8 | z8 | z8 | z8 | z8 | z2!pp! E2 E2 E2 | E8 | z8 |] %60
w: ||||||||I wish you|well!||
V:2
!mf! (3[B,B][B,B][B,B] | [B,B]2!<(![I:staff +1] [D,B,D]2 [E,E]2 [=E,B,=E]2!<)! | %2
!>(! ([F,B,F]2 [G,B,G]2 [F,B,F]2)!>)![I:staff -1] (3[B,B][B,B][B,B] | %3
!<(! [B,B]2 [DABd]2 [EABe]2 [=EAB=e]2 | [FABf]2!<)!!>(! [GBeg]2 [Aea]2 [Gg]>[Ff]!>)! | %5
!p! [EBe]2 E4- EE | ([B,B]2 [=A,=A]2 [B,B]2) (3EEE |!<(! A2 G>F G2 F>E!<)! | F6 [G,B,G]2 | %9
!<(! [A,EA]2 [B,EGB]2 [CEAc]2 [EBe]2!<)! | [DBd]2 c>d [B,FB]2 (3[B,FB][B,B][B,B] | %11
 ([Ee]6!>(! d>)c | [D_AB]2 [CGc]2 [=A,CF]2 G2!>)! | [A,EA]2 [CEAc]2!<(! [Fcf]2 [Fce]2!<)! | %14
!<(! [FBd]2 [FBdf]2 ([Bb]2 [cc']2!<)! | [Bb]2) e4 ([DABd]2 | %16
 [EGBe]2)!p! .[A,EA]2 .[B,EG]2 .[B,DF]2 | ([B,B]2 [Cc]2 [B,B]2) (3EEE | [A,EA]4 .[G,EG]2 .[B,DF]2 | %19
 .[B,EB]2 .[EBe]2 .[DBd]2 c>d |!<(! [B,FB]2 [EBc]2 [DBd]2 [EGBe]2!<)! | %21
 ([Ff]2 [Gg]2 [Ff]2) ([EB-e]2 | d2) B4 [=A,EF=A]2 | [B,DFB]2 [B,DF]2 [B,EB]2 A>G | %24
 c3 c [FA=B]2 [EGc]2 | [DGd]2 =B2 c2 EF | [CEG]2 [A,CF]2!>(! [G,CE]2 D>E!>)! | %27
 [E,C]2!mf! z C F3 F |!<(! D2 [B,DF]2!<)! (([B,B]2 [Cc]2 | [B,EB]2)) [Ee]2 [Dd]2 [CF=Ac]2 | %30
!<(! [B,FB]2 A>B [B,EG]2 F>E | [B,DF]2!<)!"_poco  a  poco." F2 [B,EB]2 [A,DA]2 | %32
 [G,G]2 [A,A][B,B] [CEc]2 B>c | [CFA]2 [Aea]2 [GBeg]2 [FBdf]2 | [EBe]2 F>G A2!ff! [B,DFB]2 | %35
 (([B,B]2 [Cc]2 [B,EB]2)) (3[B,E][B,E][B,E] | [A,A]6 (3[A,E][A,E][A,E] | %37
 (([B,B]2 [Cc]2 [B,EB]2)) (3[B,E][B,E][B,E] | [A,A]6!>(! (3[A,E][A,E][A,E]!>)! | %39
[K:bass]!f! [E,G,B,]2 [E,A,C]2 [E,G,B,]2!<(! (3[E,G,B,][E,G,B,][E,G,B,] | %40
 [A,CE]2 [A,DF]2!<)! [A,CE]2 (3[A,CE][A,CE][A,CE] | %41
[K:treble] [B,EB]2 [CEc]2!<(! [B,EB]2 (3[B,EB][B,EB][B,EB] | %42
 [Ee]2 [FAf]2 [EAe]2!<)! (3[EAe][EAe]!ff![EAe] | [ea]2 (3[Ae][Ae][Ae] [cf]2 (3[Ae][Ae][Ae] | %44
 [Aea]2 (3[Ae][Ae][Ae] [cf]2 (3[Ae][Ae][Ae] | %45
 [Bfb]2[I:staff +1] !>![D,A,D]2 !>![E,A,E]2 !>![=E,A,=E]2 | %46
 !>![F,A,B,F]2[I:staff -1] !>![G,B,EG]2 !>![A,CEA]2 !>![B,DAB]2 | [EGBe]4 E3 E | %48
 ([B,B]2 [Cc]2 [B,B]2) (3[B,E][B,E][B,E] | [A,EA]2 G>F [G,B,G]2 F>E | F6 [G,B,EG]2 | %51
 [A,EA]2 [B,EGB]2 [CEAc]2 [EBe]2 | [DFBd]2 c>d [FB]2 [E-_Ae-]2 |"_dim. subito" [EGe]2 E4 [A,B,D]2 | %54
!p! E4 E3 E | ([B,B]2 [Cc]2 [B,B]2) z2 |[K:bass]!pp! [E,E]8- |!>(! [E,E]8- | %58
 [E,G,E]2!>)! z2!ppp! E,2 z2 | z8 |] %60
V:3
 z2 |!ped! z2 [B,,,B,,]2 [C,,C,]2 [^C,,^C,]2!ped-up! | ([D,,D,]2 [^C,,^C,]2 [D,,D,]2) z2 | %3
 z2 [B,,B,]2 [C,B,C]2 [^C,B,^C]2 | [D,B,D]2 [E,B,E]2 [C,E,C]2 [B,,A,D]2 | [E,G,B,]2 E,6 | %6
 E,6 (3E,E,E, | [C,,E,,C,]2 [D,,B,,D,]2 [E,,B,,E,]2 [C,,F,,C,]2 | %8
 [B,,,F,,B,,]2 [C,,C,]2 [D,,D,]2 [E,,B,,E,]2 | [C,,C,]2 [E,,E,]2 [A,,E,A,]2 [G,,B,,G,]2 | %10
 [F,,B,,F,]2 [E,,E,]2 [D,,D,]2 [A,,A,]2 | ([G,,G,]2 [^F,,^F,]2 [G,,G,]2) [F,,F,]2 | %12
 [=F,,=F,]2 [=E,,=E,]2 [_E,,_E,]2 [_D,,_D,]2 | [C,,C,]2 [B,,,B,,]2 [A,,,A,,]2 [=A,,,=A,,]2 | %14
 ([B,,,B,,]2 [_A,,,_A,,]2) ([G,,,G,,]2 [^F,,,^F,,]2 | %15
 [G,,,G,,]2) ([C,,C,]2 [F,,,F,,]2) ([B,,,B,,]2 | %16
 [E,,E,]2) .[C,,E,,C,]2 .[B,,,E,,B,,]2 .[A,,,A,,]2 | %17
 ([G,,,G,,]2 [^F,,,^F,,]2 [G,,,G,,]2) (3E,E,E, | [C,,C,]2 (3E,E,E, .[B,,,B,,]2 .[A,,,A,,]2 | %19
 .[G,,,G,,]2 .[G,,B,,G,]2 .[F,,B,,F,]2 .[E,,E,]2 | [D,,D,]2 [G,,G,]2 [F,,F,]2 [E,,E,]2 | %21
 ([D,,D,]2 [^C,,^C,]2 [D,,D,]2) ([G,,B,,-G,]2 | [F,,B,,F,]2) [G,,G,]2 [C,,C,]2 [F,,F,]2 | %23
 [B,,B,]2 [A,,A,]2 [G,,G,]2 [B,,B,]2 | [A,,A,]2 [E,,E,]2 [D,,D,]2 [C,,C,]2 | %25
 [=B,,,=B,,]2 [F,,F,]2 [E,,E,]2 [A,,A,]2 | [G,,G,]4 [G,,,G,,]4 | %27
 [C,,C,]2 [B,,B,]2 [=A,,=A,]2 [F,,F,]2 | [B,,B,]2 [_A,,_A,]2 ([G,,G,]2 [^F,,^F,]2 | %29
 [G,,G,]4) [F,,F,]2 [E,,E,]2 | [D,,D,]2 [C,,C,]2 [B,,,B,,]2 [=A,,,=A,,]2 | %31
 [B,,,B,,]2 [_A,,_A,]2 [G,,G,]2 [F,,F,]2 | [E,,E,]2 [F,,F,][G,,G,] [A,,A,]2 [G,,G,]2 | %33
 [F,,F,]2 [C,E,C]2 [B,,E,B,]2 [A,,A,]2 | [G,,G,]2 [A,,A,]>[G,,G,] [F,,F,]2 [B,,,B,,][A,,,A,,] | %35
 ([G,,,G,,]2 [^F,,,^F,,]2 [G,,,G,,]2) [G,,G,]2 | ([C,,C,]2 [=B,,,=B,,]2 [C,,C,]4) | %37
 ([G,,,G,,]2 [^F,,,^F,,]2 [G,,,G,,]2) [G,,G,]2 | ([C,,C,]2 [=B,,,=B,,]2 [C,,C,]4) | %39
 [B,,,B,,]6 [B,,,B,,]2 | [B,,,B,,]6 [B,,,B,,]2 | [B,,G,]2 [B,,^F,]2 [B,,G,]2 [B,,,B,,]2 | %42
 [B,,C]2 [_B,,=B,]2 [B,,C]2 [F,A,C]2 | [F,A,CE]2 [B,,,B,,]4 [F,A,CE]2 | %44
 [F,A,CE]2 [B,,,B,,]4 [F,A,CE]2 | [F,A,B,D]2 !>![B,,,B,,]2 !>![C,,C,]2 !>![^C,,^C,]2 | %46
 !>![D,,B,,D,]2 !>![E,,B,,E,]2 !>![C,,C,]2 !>![B,,,B,,]2 | %47
 [E,,,E,,]2 [F,,,F,,]2 [G,,,G,,]2 [A,,,A,,]2 | ([G,,,G,,]2 [^F,,,^F,,]2 [G,,,G,,]2) [G,,B,,G,]2 | %49
 [C,,C,]2 [D,,B,,D,]2 [E,,B,,E,]2 [C,,F,,C,]2 | [B,,,F,,B,,]2 [C,,C,]2 [D,,D,]2 [E,,E,]2 | %51
 [C,,C,]2 [E,,E,]2 [A,,A,]2 [G,,G,]2 | [F,,F,]2 [E,,E,]2 [D,,D,]2 !>![C,,C,]2 | %53
!f! [B,,,B,,]2 ([G,,,G,,]2 [F,,,F,,]2) [B,,,B,,]2 | [E,,,E,,]2 [F,,,F,,]2 [G,,,G,,]2 [A,,,A,,]2 | %55
 [G,,,G,,]2 [^F,,,^F,,]2 [G,,,G,,]2 [F,,,F,,]2 | [G,,,G,,]2 [^F,,,^F,,]2 [G,,,G,,]2 [=F,,,=F,,]2 | %57
 [E,,,E,,]2 [A,,,A,,]2 [G,,,G,,]2 [F,,,F,,]2 | [E,,,E,,]2 z2 [E,,,E,,]2 z2 | [E,,,E,,]2 z2 z4 |] %60
V:4
 x2 | x8 | x8 | x8 | x8 | x2 A,2 B,2 C2 | E6 x2 | [A,E]2 [A,B,]2 [G,B,]2 [F,=A,]2 | %8
 [F,B,D]2 (3[F,B,][F,B,][F,B,] [F,B,]2 x2 | x8 | x2 [CF=A]2 x4 | B2 c2 B2 [E=A]2 | %12
 x6 (3[B,E][B,E][B,E] | x8 | x4 e4- | e2 (3[EA][EA][EA]!>(! [EA]2 x2 | x2!>)! x6 | E6 x2 | x8 | %19
 x6 [CF=A]2 | x8 | B6 x2 | [DB]2 (3[B,E][B,E][B,E] [B,E]2 x2 | x6 [C=E]2 | [CF]2 [CG]2 x4 | %25
 x2 (3[DG][DG][DG] [CG]2 C2 | x6 [F,=B,]2 | x4 C2 =A,2 | x4 E4 | x2 B4 x2 | x2 [A,E]2 x2 C2 | %31
 x2 (3[B,D][B,D][B,D] x4 | [_DE]4 x2 [C=E]2 | x8 | x2 [CE]4 x2 | E6 x2 | (E2 F2 E2) x2 | E6 x2 | %38
 (E2 F2 E2) x2 |[K:bass] x8 | x8 |[K:treble] x8 | x8 | x8 | x8 | x8 | x8 | x4 B,2 C2 | E6 x2 | %49
 x2 [A,B,]2 x2 [F,=A,]2 | [F,B,D]2 (3[F,B,][F,B,][F,B,] [F,B,]2 x2 | x8 | x2 [F=A]2 x4 | %53
 x2 (B,2 A,2) x2 | G,2 A,2 B,2!>(! C2 | E6!>)! x2 |[K:bass] B,2 C2 B,2 A,2 | B,2 C2 B,2 A,2 | x8 | %59
 x8 |] %60
V:5
 x2 | x8 | x8 | x8 | x8 | x2 F,,2 G,,2 A,,2 | (G,,2 ^F,,2 G,,2) x2 | x8 | x8 | x8 | x8 | x8 | x8 | %13
 x8 | x8 | x8 | x8 | x8 | x8 | x8 | x8 | x8 | x8 | x8 | x8 | x8 | x8 | x8 | x8 | x8 | x8 | x8 | %32
 x8 | x8 | x8 | x8 | x8 | x8 | x8 | x8 | x8 | x8 | x8 | x8 | x8 | x8 | x8 | x8 | x8 | x8 | x8 | %51
 x8 | x8 | x8 | x8 | x8 | x8 | x8 | x8 | x8 |] %60

